pk/cheese.svg

<svg viewBox="0 0 48 48" fill="none" xmlns="http://www.w3.org/2000/svg" height="1em" width="1em">
  <path d="M43 20C43 17.8285 24.8921 8.11198 20.134 5.59629C19.4394 5.22904 18.603 5.31194 17.9852 5.79737L5 16" stroke="black" stroke-width="4" stroke-linecap="round" stroke-linejoin="round"/>
  <path d="M5 17.6522C5 16.3232 6.2688 15.3543 7.55521 15.688C13.9619 17.3498 30.8602 21.3331 40.1615 19.7589C41.5557 19.523 43 20.5369 43 21.951V38.1025C43 39.1662 42.1674 40.0438 41.1051 40.0997L7.10512 41.8892C5.96083 41.9494 5 41.0378 5 39.892V17.6522Z" fill="#2F88FF" stroke="black" stroke-width="4" stroke-linecap="round" stroke-linejoin="round"/>
  <circle cx="12" cy="25" r="2" fill="white"/>
  <circle cx="25" cy="27" r="2" fill="white"/>
  <circle cx="34" cy="32" r="2" fill="white"/>
  <circle cx="18" cy="32" r="2" fill="white" stroke="white" stroke-width="2"/>
</svg>

<svg viewBox="0 0 48 48" fill="none" xmlns="http://www.w3.org/2000/svg" height="1em" width="1em">
  <path d="M43 20c0-2.172-18.108-11.888-22.866-14.404a1.974 1.974 0 0 0-2.149.201L5 16" stroke="#000" stroke-width="4" stroke-linecap="round" stroke-linejoin="round"/>
  <path d="M5 17.652c0-1.329 1.269-2.298 2.555-1.964 6.407 1.662 23.305 5.645 32.606 4.07 1.395-.235 2.839.779 2.839 2.193v16.151a2 2 0 0 1-1.895 1.998l-34 1.79A2 2 0 0 1 5 39.891v-22.24Z" fill="#2F88FF" stroke="#000" stroke-width="4" stroke-linecap="round" stroke-linejoin="round"/>
  <circle cx="12" cy="25" r="2" fill="#fff"/>
  <circle cx="25" cy="27" r="2" fill="#fff"/>
  <circle cx="34" cy="32" r="2" fill="#fff"/>
  <circle cx="18" cy="32" r="2" fill="#fff" stroke="#fff" stroke-width="2"/>
</svg>
